packages/icons/src/svg/Highlight.svg

<svg width="20" height="20" viewBox="0 0 20 20" fill="none" xmlns="http://www.w3.org/2000/svg">
<path class="highlight-bar" fill-rule="evenodd" clip-rule="evenodd" d="M2.25 17C2.25 16.5858 2.58579 16.25 3 16.25H17C17.4142 16.25 17.75 16.5858 17.75 17C17.75 17.4142 17.4142 17.75 17 17.75H3C2.58579 17.75 2.25 17.4142 2.25 17Z" fill="currentColor"/>
<path  fill-rule="evenodd" clip-rule="evenodd" d="M14.5189 3.81513C14.5189 3.81516 14.5189 3.81511 14.5189 3.81513L7.45395 10.8801L7.1005 12.9032L9.11938 12.5466L16.1849 5.48108C16.1849 5.48105 16.1848 5.4811 16.1849 5.48108C16.2542 5.41166 16.2933 5.31747 16.2933 5.21935C16.2933 5.12122 16.2543 5.02711 16.1849 4.95769M16.1849 4.95769L15.0424 3.81513C15.0424 3.81511 15.0424 3.81516 15.0424 3.81513C14.973 3.74578 14.8788 3.70674 14.7807 3.70674C14.6825 3.70674 14.5883 3.74578 14.5189 3.81513M13.5196 2.8155C13.8541 2.48111 14.3077 2.29326 14.7807 2.29326C15.2536 2.29326 15.7072 2.48111 16.0417 2.8155L17.1844 3.95821C17.5188 4.2927 17.7067 4.74638 17.7067 5.21935C17.7067 5.69232 17.5189 6.14592 17.1845 6.48041L9.96138 13.7035C9.85888 13.806 9.72734 13.8745 9.58459 13.8997L6.35377 14.4705C6.12686 14.5106 5.89464 14.4376 5.73155 14.2748C5.56846 14.112 5.49496 13.8799 5.53462 13.6529L6.10002 10.4167C6.12504 10.2735 6.19365 10.1414 6.29647 10.0386L13.5196 2.8155Z" fill="currentColor"/>
</svg>

<svg xmlns="http://www.w3.org/2000/svg" width="20" height="20" fill="none" viewBox="0 0 20 20">
  <path fill="currentColor" fill-rule="evenodd" d="m9.58 13.9-3.23.58a.717.717 0 0 1-.62-.2.68.68 0 0 1-.2-.62l.57-3.24c.03-.15.1-.28.2-.38l7.22-7.22c.33-.33.79-.52 1.26-.52s.93.19 1.26.52l1.14 1.14c.33.33.52.79.52 1.26s-.19.93-.52 1.26L9.96 13.7a.74.74 0 0 1-.38.2Zm4.94-10.09-7.07 7.07h-.01l-.35 2.02 2.02-.36 7.07-7.07a.363.363 0 0 0 0-.52l-1.14-1.14a.363.363 0 0 0-.52 0Z" clip-rule="evenodd"/>
  <path fill="currentColor" d="M3 16h14c.55 0 1 .45 1 1s-.45 1-1 1H3c-.55 0-1-.45-1-1s.45-1 1-1Z"/>
</svg>
